X: 14142
T: the Tears of Scotland
C: James Oswald
%R: waltz, minuet
B: James Oswald "The Caledonian Pocket Companion" v.1 b.4 p.14 #2 (and all of p.15)
S: https://ia800501.us.archive.org/18/items/caledonianpocket01rugg/caledonianpocket01rugg_bw.pdf
Z: 2020 John Chambers <jc:trillian.mit.edu>
M: 3/4
L: 1/8
K: Em
(G>F) |\
(E2 G2) B2 | (e>f) g2 f2 | e(cBAGF) | E4 F2 |\
(G2 A2) B2 | (c>B) A2 d2 | (3(EcA) TF3 G | G4 (B>c) |\
(d>c) B2 g2 | (d>c) B2 c2 | d2(ed)(cB) |
{B}A4 .g2 |\
(f2 e2) d2 | (B>A) G2 F2 | (E>F) G2 A2 | B4 "_Sym."(g>f) |\
e4 (g>f) | "P.15" e4 d2 | (B>A) G2 A2 | B4 :: (B>c) |\
(d>c) B2 g2 | (d>c) B2 c2 |
d2(ed)(cB) | {B}A4 (GF) |\
(G2 A2) B2 | (c>B) A2 G2 | (3(FGE) A2 (TG3/F//G//) | F4 (F3/G//A//) |\
(G2 F2) E2 | (A3B/c/) B2 | (g2 f2) e2 | {e}^d4 (cB) |\
(e2 d2) c2 |
B2(AG)(FE) | (G2 A2) B2 | (e>f) g2 f2 |\
(e2 d2) c2 | B2(AG)(FE) | c(B/A/) G2 F2 | E4 "_Sym."(g>f) |\
e4 (g>f) | e4 d2 | (B>A) G2 F2 | E4 :|
|: (G>F) |\
(EG)(FA)(GB) |(Ac)(Bgfe) | b(a/g/ f/e/d/c/ B/A/)G/F/ | E4 (3(DFA) |\
G2(BA)(cB) | e2 d(c/B/) {d}c(B/A/) | G/E/c/A/ {G}F3 G |
G4 B>e |\
{e}d3 c (3(Bge) | {e}d3 c (3(BGe) | d2(ed)(gB) | {B}A4 g2 |\
(Tf>e)(Te>d)(Td>c) | B3 A (G>F) | EedG A(B/c/) | B4 "_Sym."(g/f/e) |
b3 a (g/f/e) | b3 a (g/f/e) | (d>e) G2 (A3/B//c//) | B4 :: (B>c) |\
d3 F (Ge) | {e}d3 c (Bd) | e2 d/e/g/e/ d/e/G/B/ | {B}A4 TB>A |\
G>AA>BB>c |
c2 (3(Bed) (3(cBA) | (3(GFe) A2 (Bc) | {G}TF4 F/G/A |\
GBAGFE | A3(B/c/) B2 | b2(ag)(fe) | {e}H^d4 (cB) |\
e2(ge)(dc) | B2 E2 F2 | G3 A B2 |
(eB)(ba)(gf) |\
e3 d c2 | B2(AG)(FE) | (e/c/B/A/) G2 TF2 | E4 "_Sym."(g/f/e) |\
b3 a (g/f/e) | b3 a (g/f/e) | B>e g2 (Tf3/e//f//) | e4 :|
